resources/haticons/SVG/page-break.svg

<!-- Generated by IcoMoon.io -->
<svg version="1.1" xmlns="http://www.w3.org/2000/svg" width="24" height="24" viewBox="0 0 24 24">
<title>page-break</title>
<path d="M0 12h3v1.5h-3zM4.5 12h4.5v1.5h-4.5zM10.5 12h3v1.5h-3zM15 12h4.5v1.5h-4.5zM21 12h3v1.5h-3zM20.625 0l0.375 10.5h-18l0.375-10.5h0.75l0.375 9h15l0.375-9zM3.375 24l-0.375-9h18l-0.375 9h-0.75l-0.375-7.5h-15l-0.375 7.5z"></path>
</svg>

<svg xmlns="http://www.w3.org/2000/svg" width="24" height="24"><path d="M0 12h3v1.5H0zm4.5 0H9v1.5H4.5zm6 0h3v1.5h-3zm4.5 0h4.5v1.5H15zm6 0h3v1.5h-3zm-.375-12L21 10.5H3L3.375 0h.75L4.5 9h15l.375-9zM3.375 24L3 15h18l-.375 9h-.75l-.375-7.5h-15L4.125 24z"/></svg>
